src/public/icons/swap.svg

<svg viewBox="0 0 30 30" fill="none"
  xmlns="http://www.w3.org/2000/svg">
  <path d="M24.8426 21.1531C25.0809 21.2483 25.2 21.3912 25.2 21.5816C25.1683 21.8355 25.0412 21.9942 24.8187 22.0577L16.5253 25.1284C16.43 25.1601 16.3505 25.176 16.287 25.176C16.1599 25.176 16.0407 25.1522 15.9295 25.1046C15.8342 25.0411 15.7547 24.9618 15.6912 24.8665C15.6594 24.8031 15.6435 24.7396 15.6435 24.6761L15 17.5349V17.5111C15 17.3842 15.0636 17.2651 15.1907 17.1541C15.3178 17.043 15.4687 16.9874 15.6435 16.9874C15.7229 16.9874 15.8103 17.0112 15.9057 17.0588L18.0505 17.892C18.7655 17.2096 19.2818 16.3606 19.5996 15.345C19.9173 14.3135 20.0762 13.1867 20.0762 11.9648C20.0762 10.7905 19.9491 9.61614 19.6949 8.44181C19.4566 7.25161 19.1706 6.25185 18.837 5.44251L18.8131 5.32349C18.8131 5.22828 18.8529 5.13306 18.9323 5.03784C19.0117 4.94263 19.1229 4.87122 19.2659 4.82361C19.3136 4.80774 19.3851 4.7998 19.4804 4.7998C19.6234 4.7998 19.7505 4.83154 19.8617 4.89502C21.4187 5.83131 22.6421 7.1802 23.5318 8.94169C24.4215 10.6873 24.8664 12.5202 24.8664 14.4404C24.8664 15.5513 24.7075 16.6224 24.3898 17.6539C24.072 18.6696 23.5954 19.5821 22.9599 20.3914L24.8426 21.1531ZM4.80005 8.3466C4.83182 8.10856 4.95893 7.9578 5.18136 7.89432L13.4748 4.84741C13.5701 4.81567 13.6496 4.7998 13.7131 4.7998C13.8243 4.7998 13.9356 4.83154 14.0468 4.89502C14.158 4.94263 14.2454 5.00611 14.3089 5.08545C14.3248 5.11719 14.3407 5.14893 14.3566 5.18067C14.3725 5.21241 14.3804 5.24415 14.3804 5.27588L15 12.4171V12.4647C15 12.6551 14.9127 12.7979 14.7379 12.8932C14.6426 12.9408 14.5234 12.9646 14.3804 12.9646C14.3169 12.9646 14.2215 12.9487 14.0944 12.917L11.9496 12.0838C11.2346 12.7662 10.7183 13.6231 10.4005 14.6546C10.0828 15.6703 9.92388 16.7891 9.92388 18.011C9.92388 19.1853 10.043 20.3597 10.2814 21.534C10.5356 22.7083 10.8295 23.7002 11.1631 24.5095L11.187 24.6285C11.187 24.7555 11.1472 24.8665 11.0678 24.9618C10.9884 25.057 10.8851 25.1284 10.758 25.176C10.7103 25.1919 10.6388 25.1998 10.5435 25.1998C10.4005 25.1998 10.2655 25.1601 10.1384 25.0808C8.58136 24.1445 7.35799 22.8035 6.46827 21.0579C5.57855 19.2964 5.13369 17.4556 5.13369 15.5354C5.13369 14.4245 5.29257 13.3613 5.61033 12.3457C5.92809 11.3142 6.40472 10.3937 7.04024 9.5844L5.15753 8.82267C4.91921 8.71159 4.80005 8.5529 4.80005 8.3466Z" fill="#706b6d"/>
</svg>

<svg xmlns="http://www.w3.org/2000/svg" fill="none" viewBox="0 0 30 30"><path fill="#706b6d" d="M24.843 21.153q.357.143.357.429-.048.38-.381.476l-8.294 3.07a.8.8 0 0 1-.238.048.9.9 0 0 1-.357-.071.9.9 0 0 1-.239-.239.4.4 0 0 1-.048-.19L15 17.535v-.024q0-.19.19-.357a.67.67 0 0 1 .454-.167q.118 0 .262.072l2.144.833q1.073-1.023 1.55-2.547.476-1.547.476-3.38 0-1.762-.381-3.523-.357-1.785-.858-3l-.024-.119q0-.143.12-.285a.7.7 0 0 1 .333-.214.7.7 0 0 1 .214-.024q.214 0 .382.095 2.335 1.404 3.67 4.047a11.95 11.95 0 0 1 1.334 5.498q0 1.666-.476 3.214a8.5 8.5 0 0 1-1.43 2.737zM4.8 8.347q.048-.358.381-.453l8.294-3.047a.8.8 0 0 1 .238-.047q.167 0 .334.095a.66.66 0 0 1 .262.19l.048.096a.2.2 0 0 1 .023.095l.62 7.141v.048a.46.46 0 0 1-.262.428.8.8 0 0 1-.358.072q-.095 0-.286-.048l-2.144-.833q-1.073 1.024-1.55 2.57-.476 1.524-.476 3.357 0 1.762.357 3.523.382 1.761.882 2.976l.024.118q0 .191-.12.334a.7.7 0 0 1-.309.214.7.7 0 0 1-.214.024.75.75 0 0 1-.406-.12q-2.335-1.403-3.67-4.022-1.334-2.642-1.334-5.523 0-1.665.476-3.19a8.5 8.5 0 0 1 1.43-2.76l-1.882-.762Q4.8 8.656 4.8 8.347"/></svg>
